packages/axiom-materials/src/icon_svgs/shuffle.svg

<svg height="16" viewBox="0 0 16 16" width="16" xmlns="http://www.w3.org/2000/svg"><path d="m7.468 5.419.98188522 1.32531292.09460138.11305771c.20113902.21343427.471239.34944357.76247869.38394767l.14716008.0086817h1.54587463v-1.25l3 2-3 2v-1.25h-1.54587463l-.18577998-.006271c-.73410574-.0496379-1.41798732-.3917854-1.89785044-.9489992l-.1256979-.1572414-.71079705-.9584884zm3.532-5.419 3 2-3 2v-1.25h-1.54587463c-.34645086 0-.67497658.14362277-.90963877.39262937l-.09460138.11305771-3.24766078 4.38180132c-.48163399.6498291-1.22270572 1.0520902-2.02354835 1.1062406l-.18577998.006271h-2.99289611v-1.5h2.99289611c.34645086 0 .67497658-.1436228.90963878-.39262937l.09460137-.11305771 3.24766079-4.38180134c.48163399-.6498291 1.22270571-1.05209016 2.02354834-1.10624057l.18577998-.00627101h1.54587463zm-8.00710389 1.25.18577998.00627101c.73410575.04963787 1.41798733.39178539 1.89785045.94899914l.1256979.15724143.70977556.95748842-.934 1.26-.98086374-1.32431292-.09460137-.11305771c-.20113903-.21343423-.47123901-.3494436-.76247869-.38394762l-.14716009-.00868175h-2.99289611v-1.5z" fill-rule="evenodd" transform="translate(1 3)"/></svg>

<?xml version="1.0" encoding="UTF-8"?>
<svg width="16px" height="16px" viewBox="0 0 16 16" version="1.1" xmlns="http://www.w3.org/2000/svg" xmlns:xlink="http://www.w3.org/1999/xlink">
    <title>Icon/Shuffle</title>
    <g id="Icon/Shuffle" stroke="none" stroke-width="1" fill="none" fill-rule="evenodd">
        <g id="Shuffle" transform="translate(1.000000, 3.000000)" fill="#000000">
            <path d="M7.468,5.419 L8.44988522,6.74431292 L8.5444866,6.85737063 C8.74562562,7.0708049 9.0157256,7.2068142 9.30696529,7.2413183 L9.45412537,7.25 L11,7.25 L11,6 L14,8 L11,10 L11,8.75 L9.45412537,8.75 L9.26834539,8.743729 C8.53423965,8.6940911 7.85035807,8.3519436 7.37049495,7.7947298 L7.24479705,7.6374884 L6.534,6.679 L7.468,5.419 Z M11,0 L14,2 L11,4 L11,2.75 L9.45412537,2.75 C9.10767451,2.75 8.77914879,2.89362277 8.5444866,3.14262937 L8.44988522,3.25568708 L5.20222444,7.6374884 C4.72059045,8.2873175 3.97951872,8.6895786 3.17867609,8.743729 L2.99289611,8.75 L0,8.75 L0,7.25 L2.99289611,7.25 C3.33934697,7.25 3.66787269,7.1063772 3.90253489,6.85737063 L3.99713626,6.74431292 L7.24479705,2.36251158 C7.72643104,1.71268248 8.46750276,1.31042142 9.26834539,1.25627101 L9.45412537,1.25 L11,1.25 L11,0 Z M2.99289611,1.25 L3.17867609,1.25627101 C3.91278184,1.30590888 4.59666342,1.6480564 5.07652654,2.20527015 L5.20222444,2.36251158 L5.912,3.32 L4.978,4.58 L3.99713626,3.25568708 L3.90253489,3.14262937 C3.70139586,2.92919514 3.43129588,2.79318577 3.1400562,2.75868175 L2.99289611,2.75 L0,2.75 L0,1.25 L2.99289611,1.25 Z" id="Combined-Shape-Copy-2"></path>
        </g>
    </g>
</svg>
